X:316
T: Die falsche Grfina von Neuenburg (4-17), S. 24
N: P0578
O: Lothringen
S: PINCK, Louis: Verklingende Weisen Bd 4, Kassel 1939]
R: ???, Ballade?, Legende?]
M: 3/4
L: 1/8
K: F
C2 | F2A2F2 | G2A2F2 | G3AB2 | c4
c2 | d2d2c2 | B2G2c2 | G6
c6 | B2A2F2 | B2c2A2 | F3GA2 | G6
G6 | F2D2C2 | G2B2AG | F6
c6 | B2A2F2 | B2c2A2 | F3GA2 | G6
G6 | F2D2C2 | G2B2AG | F6

